mediabuilder/img/logo-mob.svg

<svg width="48" height="12" viewBox="0 0 48 12" fill="none" xmlns="http://www.w3.org/2000/svg">
<path d="M0 0.16156H1.71764V9.69359H6.55344V11.4707H0V0.16156Z" fill="#00CCC0"/>
<path d="M14.969 11.6323C14.0265 11.6323 13.1765 11.3846 12.419 10.8891C11.6615 10.3829 11.0669 9.6882 10.6353 8.80501C10.2037 7.91105 9.98788 6.91476 9.98788 5.81615C9.98788 4.71755 10.2037 3.72665 10.6353 2.84345C11.0669 1.94949 11.6615 1.25478 12.419 0.759331C13.1765 0.25311 14.0265 0 14.969 0C15.9115 0 16.7615 0.25311 17.519 0.759331C18.2766 1.25478 18.8711 1.9441 19.3027 2.8273C19.7344 3.71049 19.9502 4.70678 19.9502 5.81615C19.9502 6.92553 19.7344 7.92182 19.3027 8.80501C18.8711 9.6882 18.2766 10.3829 17.519 10.8891C16.7615 11.3846 15.9115 11.6323 14.969 11.6323ZM14.969 9.79053C15.5856 9.79053 16.1405 9.62358 16.6338 9.28969C17.1271 8.94503 17.5146 8.47112 17.7965 7.86796C18.0784 7.25404 18.2193 6.5701 18.2193 5.81615C18.2193 5.06221 18.0784 4.38366 17.7965 3.7805C17.5146 3.16657 17.1271 2.69266 16.6338 2.35877C16.1405 2.01411 15.5856 1.84178 14.969 1.84178C14.3524 1.84178 13.7975 2.01411 13.3042 2.35877C12.811 2.69266 12.4234 3.16657 12.1415 3.7805C11.8597 4.38366 11.7187 5.06221 11.7187 5.81615C11.7187 6.5701 11.8597 7.25404 12.1415 7.86796C12.4234 8.47112 12.811 8.94503 13.3042 9.28969C13.7975 9.62358 14.3524 9.79053 14.969 9.79053Z" fill="#00CCC0"/>
<path d="M30.9932 5.68691H32.6183V10.1944C32.1427 10.6576 31.5878 11.013 30.9536 11.2607C30.3193 11.5084 29.6675 11.6323 28.9981 11.6323C28.0556 11.6323 27.2056 11.3846 26.4481 10.8891C25.6905 10.3829 25.096 9.6882 24.6644 8.80501C24.2328 7.92182 24.0169 6.92553 24.0169 5.81615C24.0169 4.70678 24.2328 3.71049 24.6644 2.8273C25.096 1.9441 25.6905 1.25478 26.4481 0.759331C27.2144 0.25311 28.0732 0 29.0245 0C29.7997 0 30.5043 0.156174 31.1385 0.468523C31.7727 0.780873 32.3056 1.23863 32.7373 1.84178L31.6538 3.13426C30.9491 2.27261 30.0991 1.84178 29.1038 1.84178C28.452 1.84178 27.8706 2.00873 27.3597 2.34262C26.8577 2.67651 26.4613 3.14503 26.1706 3.74819C25.8887 4.35134 25.7478 5.04067 25.7478 5.81615C25.7478 6.5701 25.8887 7.24865 26.1706 7.85181C26.4613 8.45496 26.8577 8.92887 27.3597 9.27353C27.8706 9.6182 28.4476 9.79053 29.0906 9.79053C29.8129 9.79053 30.4471 9.59665 30.9932 9.20891V5.68691Z" fill="#00CCC0"/>
<path d="M42.111 11.6323C41.1685 11.6323 40.3185 11.3846 39.561 10.8891C38.8035 10.3829 38.2089 9.6882 37.7773 8.80501C37.3457 7.91105 37.1299 6.91476 37.1299 5.81615C37.1299 4.71755 37.3457 3.72665 37.7773 2.84345C38.2089 1.94949 38.8035 1.25478 39.561 0.759331C40.3185 0.25311 41.1685 0 42.111 0C43.0535 0 43.9036 0.25311 44.6611 0.759331C45.4186 1.25478 46.0132 1.9441 46.4448 2.8273C46.8764 3.71049 47.0922 4.70678 47.0922 5.81615C47.0922 6.92553 46.8764 7.92182 46.4448 8.80501C46.0132 9.6882 45.4186 10.3829 44.6611 10.8891C43.9036 11.3846 43.0535 11.6323 42.111 11.6323ZM42.111 9.79053C42.7276 9.79053 43.2826 9.62358 43.7758 9.28969C44.2691 8.94503 44.6567 8.47112 44.9385 7.86796C45.2204 7.25404 45.3613 6.5701 45.3613 5.81615C45.3613 5.06221 45.2204 4.38366 44.9385 3.7805C44.6567 3.16657 44.2691 2.69266 43.7758 2.35877C43.2826 2.01411 42.7276 1.84178 42.111 1.84178C41.4945 1.84178 40.9395 2.01411 40.4463 2.35877C39.953 2.69266 39.5654 3.16657 39.2836 3.7805C39.0017 4.38366 38.8608 5.06221 38.8608 5.81615C38.8608 6.5701 39.0017 7.25404 39.2836 7.86796C39.5654 8.47112 39.953 8.94503 40.4463 9.28969C40.9395 9.62358 41.4945 9.79053 42.111 9.79053Z" fill="#00CCC0"/>
</svg>

<svg width="48" height="12" fill="none" xmlns="http://www.w3.org/2000/svg"><path d="M0 .162h1.718v9.532h4.835v1.777H0V.16zm14.969 11.47a4.557 4.557 0 01-2.55-.743c-.758-.506-1.352-1.2-1.784-2.084-.431-.894-.647-1.89-.647-2.989 0-1.098.216-2.09.647-2.973.432-.894 1.027-1.588 1.784-2.084A4.487 4.487 0 0114.969 0a4.48 4.48 0 012.55.76c.758.495 1.352 1.184 1.784 2.067.431.883.647 1.88.647 2.99 0 1.109-.216 2.105-.647 2.988-.432.883-1.026 1.578-1.784 2.084a4.557 4.557 0 01-2.55.743zm0-1.841c.617 0 1.171-.167 1.665-.501.493-.345.88-.819 1.163-1.422.281-.614.422-1.298.422-2.052s-.14-1.432-.422-2.035c-.282-.614-.67-1.088-1.163-1.422a2.838 2.838 0 00-1.665-.517c-.617 0-1.171.172-1.665.517-.493.334-.88.808-1.162 1.421-.282.604-.423 1.282-.423 2.036s.14 1.438.423 2.052c.281.603.669 1.077 1.162 1.422a2.9 2.9 0 001.665.5zm16.024-4.104h1.625v4.507a4.929 4.929 0 01-1.664 1.067 5.332 5.332 0 01-1.956.371 4.557 4.557 0 01-2.55-.743c-.758-.506-1.352-1.2-1.784-2.084-.431-.883-.647-1.88-.647-2.989 0-1.11.216-2.106.647-2.989.432-.883 1.026-1.572 1.784-2.068A4.571 4.571 0 0129.024 0c.776 0 1.48.156 2.114.469.635.312 1.168.77 1.6 1.373l-1.084 1.292c-.705-.861-1.555-1.292-2.55-1.292-.652 0-1.233.167-1.744.5-.502.335-.899.803-1.19 1.406-.281.603-.422 1.293-.422 2.068 0 .754.14 1.433.423 2.036.29.603.687 1.077 1.189 1.422.51.344 1.088.517 1.73.517.723 0 1.357-.194 1.903-.582V5.687zm11.118 5.945a4.557 4.557 0 01-2.55-.743c-.758-.506-1.352-1.2-1.784-2.084-.431-.894-.647-1.89-.647-2.989 0-1.098.216-2.09.647-2.973.432-.894 1.026-1.588 1.784-2.084A4.487 4.487 0 0142.111 0a4.48 4.48 0 012.55.76c.758.495 1.352 1.184 1.784 2.067.431.883.647 1.88.647 2.99 0 1.109-.216 2.105-.647 2.988-.432.883-1.026 1.578-1.784 2.084a4.557 4.557 0 01-2.55.743zm0-1.841a2.9 2.9 0 001.665-.501c.493-.345.88-.819 1.162-1.422.282-.614.423-1.298.423-2.052s-.14-1.432-.422-2.035c-.282-.614-.67-1.088-1.163-1.422a2.838 2.838 0 00-1.665-.517 2.84 2.84 0 00-1.665.517c-.493.334-.88.808-1.162 1.421-.282.604-.423 1.282-.423 2.036s.14 1.438.423 2.052c.281.603.669 1.077 1.162 1.422.494.334 1.049.5 1.665.5z" fill="#00CCC0"/></svg>
